X: 4
T: West End, The
I: West End, The	R-21	D	reel
M: C|
R: reel
K: D
AG| "D"FGAF D2d2| "A"cdec A3f| "G"gfed    B2ed| "A"c2A2 A2AG|
    "D"FGAF D2d2| "A"cdec A3f| "G"gfed "A"Bdce| "D"d6 :|
fg| "D"afdf a2a2| "A"gece g2g2| "D"fedc "Em"d2ed| "A"c2A2 A2fg|
    "D"afdf a2a2| "A"gece g2g2| "D"afdf "A"gece| "D"d2f2 d2fg|
    "D"afdf a2a2| "A"gece g2g2| "D"fedc    d2ed| "A"c2A2 A2AG|
    "D"FGAF D2d2| "A"cdec A3f | "G"gfed "A"Bdce| "D"d6 |]
%%text Roaring Jelly  R-21

%%vskip 10pt

